icons/star-fill-24.svg

<svg xmlns="http://www.w3.org/2000/svg" width="24" height="24" viewBox="0 0 24 24"><path d="M12.672.668l3.059 6.197 6.838.993a.75.75 0 01.416 1.28l-4.948 4.823 1.168 6.812a.75.75 0 01-1.088.79L12 18.347l-6.116 3.216a.75.75 0 01-1.088-.791l1.168-6.811-4.948-4.823a.749.749 0 01.416-1.279l6.838-.994L11.327.668a.75.75 0 011.345 0z"/></svg>

<svg xmlns="http://www.w3.org/2000/svg" width="24" height="24" viewBox="0 0 24 24">
  <defs/>
  <path d="M12.672,0.668 L15.731,6.865 L22.569,7.858 C22.852,7.899 23.087,8.097 23.175,8.369 C23.264,8.64 23.19,8.939 22.985,9.138 L18.037,13.961 L19.205,20.773 C19.253,21.054 19.137,21.338 18.906,21.506 C18.675,21.673 18.37,21.696 18.117,21.563 L12,18.347 L5.884,21.563 C5.631,21.696 5.325,21.674 5.094,21.506 C4.863,21.338 4.748,21.053 4.796,20.772 L5.964,13.961 L1.016,9.138 C0.812,8.939 0.738,8.641 0.827,8.369 C0.915,8.098 1.15,7.9 1.432,7.859 L8.27,6.865 L11.327,0.668 C11.453,0.412 11.714,0.25 12,0.25 C12.285,0.25 12.546,0.412 12.672,0.668 Z"/>
</svg>
